assets/svgs/law-color/LawColor11.svg

<svg xmlns="http://www.w3.org/2000/svg" data-name="Layer 1" viewBox="0 0 64 64"><path fill="#ed7d45" d="M14.029 54.824a5.763 5.763 0 010-11.525h22.023L34.357 45a5.75 5.75 0 000 8.116l1.69 1.7z"/><path fill="#dd603e" d="M32.682 49.061A5.724 5.724 0 0134.357 45l1.695-1.7h-5.123L29.235 45a5.75 5.75 0 000 8.116l1.69 1.7h5.122l-1.69-1.7a5.733 5.733 0 01-1.675-4.055z"/><path fill="#fff" d="M38.443 54.824a5.763 5.763 0 010-11.525H14.281V14.938a5.768 5.768 0 015.762-5.762h27.534l-1.694 1.705a5.724 5.724 0 00-1.676 4.057v34.123a5.771 5.771 0 01-5.764 5.763z"/><path fill="#e5e5e5" d="M43.167 9.176l-1.694 1.705a5.724 5.724 0 00-1.673 4.057v34.123a5.772 5.772 0 01-3.558 5.323 5.759 5.759 0 007.969-5.323V14.938a5.724 5.724 0 011.676-4.057l1.694-1.705z"/><path fill="#e5e5e5" d="M49.969 17.057h-5.762v-2.119a5.763 5.763 0 116.972 5.636l-1.21.26z"/><path fill="#dd603e" d="M44.207 17.057h5.762v3.645h-5.762z"/><path fill="#281a10" d="M49.969 8.176H20.043a6.769 6.769 0 00-6.762 6.762v27.4a6.762 6.762 0 00.748 13.482h24.414a6.771 6.771 0 006.764-6.764V21.7h4.762a6.763 6.763 0 100-13.525zM33.648 53.824H14.029a4.763 4.763 0 010-9.525h19.619a6.75 6.75 0 000 9.525zm9.559-38.887v34.124a4.763 4.763 0 11-4.764-4.761 1 1 0 000-2H15.281V14.938a4.767 4.767 0 014.762-4.762h25.131a6.738 6.738 0 00-1.967 4.762zm5.762 4.763h-3.762v-1.643h3.762zm2-.105v-2.538a1 1 0 00-1-1h-4.762v-1.119a4.763 4.763 0 115.762 4.662z"/><path fill="#281a10" d="M21.756 20.1h14.635a1 1 0 000-2H21.756a1 1 0 000 2zM21.756 27.236h14.635a1 1 0 000-2H21.756a1 1 0 000 2zM21.756 34.377h14.635a1 1 0 000-2H21.756a1 1 0 000 2z"/></svg>

<svg id="Layer_1" data-name="Layer 1" xmlns="http://www.w3.org/2000/svg" viewBox="0 0 64 64"><title>Artboard 11</title><path d="M14.029,54.824a5.763,5.763,0,0,1,0-11.525H36.052L34.357,45a5.75,5.75,0,0,0,0,8.116l1.69,1.7Z" style="fill:#ed7d45"/><path d="M32.682,49.061A5.724,5.724,0,0,1,34.357,45L36.052,43.3H30.929L29.235,45a5.75,5.75,0,0,0,0,8.116l1.69,1.7h5.122l-1.69-1.7A5.733,5.733,0,0,1,32.682,49.061Z" style="fill:#dd603e"/><path d="M38.443,54.824a5.763,5.763,0,0,1,0-11.525H14.281V14.938a5.768,5.768,0,0,1,5.762-5.762H47.577l-1.694,1.705a5.724,5.724,0,0,0-1.676,4.057V49.061A5.771,5.771,0,0,1,38.443,54.824Z" style="fill:#fff"/><path d="M43.167,9.176l-1.694,1.705A5.724,5.724,0,0,0,39.8,14.938V49.061a5.772,5.772,0,0,1-3.558,5.323,5.759,5.759,0,0,0,7.969-5.323V14.938a5.724,5.724,0,0,1,1.676-4.057l1.694-1.705Z" style="fill:#e5e5e5"/><path d="M49.969,17.057H44.207V14.938a5.763,5.763,0,1,1,6.972,5.636l-1.21.26Z" style="fill:#e5e5e5"/><rect x="44.207" y="17.057" width="5.762" height="3.645" style="fill:#dd603e"/><path d="M49.969,8.176H20.043a6.769,6.769,0,0,0-6.762,6.762v27.4a6.762,6.762,0,0,0,.748,13.482H38.443a6.771,6.771,0,0,0,6.764-6.764V21.7h4.762a6.763,6.763,0,1,0,0-13.525ZM33.648,53.824H14.029a4.763,4.763,0,0,1,0-9.525H33.648a6.75,6.75,0,0,0,0,9.525Zm9.559-38.887V49.061A4.763,4.763,0,1,1,38.443,44.3a1,1,0,0,0,0-2H15.281V14.938a4.767,4.767,0,0,1,4.762-4.762H45.174A6.738,6.738,0,0,0,43.207,14.938ZM48.969,19.7H45.207V18.057h3.762Zm2-.105V17.057a1,1,0,0,0-1-1H45.207V14.938A4.763,4.763,0,1,1,50.969,19.6Z" style="fill:#281a10"/><path d="M21.756,20.1H36.391a1,1,0,0,0,0-2H21.756a1,1,0,0,0,0,2Z" style="fill:#281a10"/><path d="M21.756,27.236H36.391a1,1,0,0,0,0-2H21.756a1,1,0,0,0,0,2Z" style="fill:#281a10"/><path d="M21.756,34.377H36.391a1,1,0,0,0,0-2H21.756a1,1,0,0,0,0,2Z" style="fill:#281a10"/></svg>
